X: 1
T: Sevdino Oro
S: Presented by Iliana Bozhanova and Ljuben Dossev 1999
Z: John Chambers <jc@trillian.mit.edu>
%%staffsep 30
M: 7/8
K: Dmix
"A"\
|: {G}A2 AG ~F3 | GA GF ~E3 | E2 D2 {F}~G3 | F2- FE D3 | E4 F3 |1 D2 A2 ~G2F :|2 ~D7 ||
"B1"\
|: D2 (GA) A3 | (A3G) F3 | A2 F2 G3 | F2 (FE) D3 | D2 E2 (EDE) |
